images/zhuyin/20.svg

<svg width="50" height="50" viewBox="0 0 50 50" fill="none" xmlns="http://www.w3.org/2000/svg">
<path d="M24.0625 14.6562C24.4062 14.6562 24.7969 14.7891 25.2344 15.0547C25.7031 15.3516 25.9375 15.625 25.9375 15.875C25.9375 15.9688 25.8672 16.125 25.7266 16.3438C25.5859 16.5469 25.4766 16.9766 25.3984 17.6328L25 20.2578C26.0625 20.1328 27.1875 20.0156 28.375 19.9062C29.8125 19.7188 30.6875 19.5391 31 19.3672C31.25 19.2266 31.4375 19.1562 31.5625 19.1562C31.8438 19.1562 32.3047 19.375 32.9453 19.8125C33.5234 20.25 33.8125 20.5625 33.8125 20.75C33.8125 20.875 33.7969 20.9688 33.7656 21.0312C33.7031 21.0938 33.625 21.125 33.5312 21.125L32.9453 21.1016C32.5234 21.0547 31.9375 21.0312 31.1875 21.0312C29.4375 21.0312 27.3047 21.2188 24.7891 21.5938L24.3672 24.4766L24.3438 24.875C24.3438 25.2656 24.5 25.4609 24.8125 25.4609C24.9688 25.4609 25.1641 25.4375 25.3984 25.3906C26.6484 25.2656 27.8125 25.1406 28.8906 25.0156C29.1406 24.9844 29.4688 24.9688 29.875 24.9688C30.3594 24.9688 30.8516 25.1172 31.3516 25.4141C31.8672 25.7578 32.125 26.0547 32.125 26.3047C32.125 26.5391 31.8359 27.2578 31.2578 28.4609C30.4922 30.0391 29.4609 31.4141 28.1641 32.5859C27.0234 33.5859 25.75 34.2969 24.3438 34.7188C24.2812 34.7188 24.25 34.6875 24.25 34.625C24.25 34.5312 24.4219 34.3047 24.7656 33.9453C26.4844 32.3828 27.9844 30.5859 29.2656 28.5547C29.8594 27.5547 30.1562 26.8906 30.1562 26.5625C30.1562 26.3125 30.0312 26.1875 29.7812 26.1875C29.3438 26.1875 28.4062 26.2812 26.9688 26.4688C25.6875 26.6094 24.7422 26.7578 24.1328 26.9141C23.7578 26.9922 23.5156 27.0312 23.4062 27.0312C23.25 27.0312 23.0469 26.9219 22.7969 26.7031C22.5156 26.4375 22.375 26.2344 22.375 26.0938C22.375 25.9688 22.4375 25.7812 22.5625 25.5312C22.8125 24.8594 23.0625 23.7344 23.3125 22.1562L23.3594 21.8047C21.2344 22.1328 19.7109 22.4766 18.7891 22.8359C18.3828 23.0078 18.1094 23.0938 17.9688 23.0938C17.7344 23.0938 17.3125 22.8359 16.7031 22.3203C16.3594 21.9922 16.1875 21.7812 16.1875 21.6875C16.1875 21.5156 16.25 21.4297 16.375 21.4297C17.0312 21.4297 17.7812 21.3984 18.625 21.3359C20.0625 21.0078 21.6953 20.7266 23.5234 20.4922C23.6328 19.3047 23.6875 18.0781 23.6875 16.8125V15.3359C23.6875 14.8828 23.8125 14.6562 24.0625 14.6562Z" fill="#333333"/>
<path d="M25.2344 15.0547L25.5019 14.6322L25.4939 14.6273L25.2344 15.0547ZM25.7266 16.3438L26.1377 16.6284L26.1425 16.6213L26.1472 16.6141L25.7266 16.3438ZM25.3984 17.6328L25.8928 17.7078L25.894 17.6999L25.8949 17.6919L25.3984 17.6328ZM25 20.2578L24.5057 20.1828L24.4073 20.831L25.0584 20.7544L25 20.2578ZM28.375 19.9062L28.4209 20.4041L28.4303 20.4033L28.4397 20.4021L28.375 19.9062ZM31 19.3672L31.241 19.8053L31.2451 19.803L31 19.3672ZM32.9453 19.8125L33.247 19.4138L33.2373 19.4065L33.2273 19.3996L32.9453 19.8125ZM33.7656 21.0312L34.1192 21.3848L34.1766 21.3274L34.2128 21.2549L33.7656 21.0312ZM33.5312 21.125L33.5113 21.6246L33.5213 21.625H33.5312V21.125ZM32.9453 21.1016L32.8901 21.5985L32.9077 21.6005L32.9253 21.6012L32.9453 21.1016ZM24.7891 21.5938L24.7153 21.0992L24.3481 21.154L24.2943 21.5214L24.7891 21.5938ZM24.3672 24.4766L23.8725 24.4042L23.8693 24.4256L23.8681 24.4472L24.3672 24.4766ZM24.3438 24.875L23.8446 24.8456L23.8438 24.8603V24.875H24.3438ZM25.3984 25.3906L25.3487 24.8931L25.3244 24.8955L25.3004 24.9003L25.3984 25.3906ZM28.8906 25.0156L28.9482 25.5123L28.9526 25.5118L28.8906 25.0156ZM31.3516 25.4141L31.6289 24.998L31.6181 24.9908L31.6068 24.9841L31.3516 25.4141ZM31.2578 28.4609L31.7077 28.6792L31.7085 28.6775L31.2578 28.4609ZM28.1641 32.5859L28.4937 32.9619L28.4993 32.9569L28.1641 32.5859ZM24.3438 34.7188V35.2188H24.4171L24.4874 35.1977L24.3438 34.7188ZM24.7656 33.9453L24.4293 33.5753L24.4164 33.5871L24.4043 33.5997L24.7656 33.9453ZM29.2656 28.5547L29.6887 28.8215L29.6956 28.81L29.2656 28.5547ZM26.9688 26.4688L27.0233 26.9659L27.0334 26.9646L26.9688 26.4688ZM24.1328 26.9141L24.2348 27.4036L24.246 27.4012L24.257 27.3984L24.1328 26.9141ZM22.7969 26.7031L22.4536 27.0666L22.4605 27.0732L22.4676 27.0794L22.7969 26.7031ZM22.5625 25.5312L23.0097 25.7549L23.0217 25.7308L23.0311 25.7056L22.5625 25.5312ZM23.3125 22.1562L23.8065 22.2345L23.8081 22.2223L23.3125 22.1562ZM23.3594 21.8047L23.855 21.8708L23.9433 21.2086L23.2831 21.3105L23.3594 21.8047ZM18.7891 22.8359L18.6075 22.3701L18.6008 22.3727L18.5942 22.3755L18.7891 22.8359ZM16.7031 22.3203L16.3579 22.682L16.3687 22.6923L16.3802 22.702L16.7031 22.3203ZM18.625 21.3359L18.6619 21.8346L18.6995 21.8318L18.7363 21.8234L18.625 21.3359ZM23.5234 20.4922L23.587 20.9881L23.9846 20.9372L24.0213 20.538L23.5234 20.4922ZM24.0625 15.1562C24.2805 15.1562 24.5799 15.2423 24.9749 15.4821L25.4939 14.6273C25.0138 14.3358 24.532 14.1562 24.0625 14.1562V15.1562ZM24.9668 15.4771C25.1793 15.6117 25.3097 15.7234 25.3821 15.8078C25.4552 15.8931 25.4375 15.9124 25.4375 15.875H26.4375C26.4375 15.5876 26.3026 15.3452 26.1413 15.157C25.9793 14.968 25.7582 14.7946 25.5019 14.6323L24.9668 15.4771ZM25.4375 15.875C25.4375 15.8559 25.4393 15.8417 25.4405 15.8337C25.4412 15.8296 25.4418 15.8265 25.4423 15.8246C25.4425 15.8236 25.4427 15.8229 25.4428 15.8224C25.4429 15.8219 25.443 15.8217 25.443 15.8217C25.443 15.8217 25.4428 15.8225 25.4422 15.8241C25.4417 15.8258 25.4408 15.8282 25.4397 15.8313C25.4373 15.8376 25.4338 15.8462 25.4288 15.8573C25.4076 15.9045 25.369 15.9753 25.306 16.0734L26.1472 16.6141C26.2248 16.4934 26.2916 16.3767 26.3407 16.2677C26.3848 16.1697 26.4375 16.0291 26.4375 15.875H25.4375ZM25.3155 16.0591C25.1943 16.2341 25.1141 16.4608 25.0545 16.695C24.9925 16.9385 24.9425 17.2333 24.9019 17.5737L25.8949 17.6919C25.9325 17.376 25.9762 17.1279 26.0236 16.9417C26.0734 16.7462 26.1182 16.6565 26.1377 16.6284L25.3155 16.0591ZM24.9041 17.5578L24.5057 20.1828L25.4943 20.3328L25.8928 17.7078L24.9041 17.5578ZM25.0584 20.7544C26.1163 20.6299 27.2371 20.5132 28.4209 20.4041L28.3291 19.4084C27.1379 19.5181 26.0087 19.6357 24.9416 19.7612L25.0584 20.7544ZM28.4397 20.4021C29.1641 20.3076 29.7556 20.2139 30.21 20.1206C30.6446 20.0314 31.0107 19.9319 31.241 19.8053L30.759 18.9291C30.6768 18.9743 30.4492 19.0506 30.0088 19.1411C29.5882 19.2275 29.0234 19.3174 28.3103 19.4104L28.4397 20.4021ZM31.2451 19.803C31.3565 19.7403 31.4417 19.7004 31.5037 19.6771C31.571 19.6519 31.5851 19.6562 31.5625 19.6562V18.6562C31.2949 18.6562 31.0062 18.7901 30.7549 18.9314L31.2451 19.803ZM31.5625 19.6562C31.591 19.6562 31.6953 19.6726 31.9048 19.772C32.103 19.8661 32.3547 20.0146 32.6633 20.2254L33.2273 19.3996C32.8953 19.1729 32.5962 18.9933 32.3335 18.8686C32.082 18.7492 31.8153 18.6562 31.5625 18.6562V19.6562ZM32.6436 20.2112C32.9231 20.4227 33.1132 20.5897 33.2287 20.7145C33.2864 20.777 33.3144 20.817 33.3254 20.8362C33.3394 20.8603 33.3125 20.8261 33.3125 20.75H34.3125C34.3125 20.5801 34.2495 20.4366 34.1912 20.3357C34.13 20.2299 34.0495 20.1293 33.9628 20.0355C33.7891 19.8478 33.5457 19.6398 33.247 19.4138L32.6436 20.2112ZM33.3125 20.75C33.3125 20.793 33.3097 20.8191 33.3076 20.8319C33.3066 20.8378 33.3061 20.8385 33.3072 20.8348C33.3083 20.8313 33.3115 20.8215 33.3184 20.8076L34.2128 21.2549C34.2963 21.0879 34.3125 20.9005 34.3125 20.75H33.3125ZM33.4121 20.6777C33.4262 20.6635 33.4475 20.6481 33.4745 20.6373C33.5008 20.6268 33.5218 20.625 33.5312 20.625V21.625C33.7487 21.625 33.9568 21.5472 34.1192 21.3848L33.4121 20.6777ZM33.5512 20.6254L32.9653 20.602L32.9253 21.6012L33.5113 21.6246L33.5512 20.6254ZM33.0005 20.6046C32.5515 20.5547 31.9443 20.5312 31.1875 20.5312V21.5312C31.9307 21.5312 32.4953 21.5546 32.8901 21.5985L33.0005 20.6046ZM31.1875 20.5312C29.4045 20.5312 27.2455 20.7221 24.7153 21.0992L24.8628 22.0883C27.3639 21.7154 29.4705 21.5312 31.1875 21.5312V20.5312ZM24.2943 21.5214L23.8725 24.4042L24.8619 24.549L25.2838 21.6661L24.2943 21.5214ZM23.8681 24.4472L23.8446 24.8456L24.8429 24.9044L24.8663 24.5059L23.8681 24.4472ZM23.8438 24.875C23.8438 25.1237 23.8913 25.4028 24.0705 25.6268C24.2667 25.8721 24.5459 25.9609 24.8125 25.9609V24.9609C24.7856 24.9609 24.7851 24.9567 24.7997 24.9628C24.8072 24.9659 24.8168 24.971 24.8269 24.9785C24.837 24.9861 24.8452 24.9944 24.8514 25.0021C24.8637 25.0176 24.8616 25.0227 24.8562 25.0025C24.8505 24.9813 24.8438 24.941 24.8438 24.875H23.8438ZM24.8125 25.9609C25.0141 25.9609 25.2449 25.9312 25.4965 25.8809L25.3004 24.9003C25.0832 24.9438 24.9234 24.9609 24.8125 24.9609V25.9609ZM25.4482 25.8881C26.7004 25.7629 27.8671 25.6376 28.9482 25.5123L28.833 24.519C27.7579 24.6436 26.5965 24.7683 25.3487 24.8931L25.4482 25.8881ZM28.9526 25.5118C29.1735 25.4842 29.4786 25.4688 29.875 25.4688V24.4688C29.4589 24.4688 29.1077 24.4846 28.8286 24.5195L28.9526 25.5118ZM29.875 25.4688C30.253 25.4688 30.658 25.5838 31.0963 25.844L31.6068 24.9841C31.0451 24.6506 30.4657 24.4688 29.875 24.4688V25.4688ZM31.0742 25.8301C31.3136 25.9897 31.4663 26.1213 31.5541 26.2224C31.647 26.3293 31.625 26.3526 31.625 26.3047H32.625C32.625 26.0068 32.4741 25.7566 32.3092 25.5667C32.1392 25.3709 31.9052 25.1822 31.6289 24.998L31.0742 25.8301ZM31.625 26.3047C31.625 26.2847 31.6265 26.3135 31.5923 26.4262C31.5621 26.5259 31.5138 26.6603 31.4443 26.833C31.3057 27.1775 31.0943 27.6467 30.8071 28.2444L31.7085 28.6775C31.9994 28.072 32.2216 27.5803 32.3721 27.2061C32.4472 27.0194 32.5072 26.855 32.5493 26.7164C32.5874 26.5908 32.625 26.4419 32.625 26.3047H31.625ZM30.808 28.2427C30.0703 29.7632 29.0779 31.0863 27.8288 32.215L28.4993 32.9569C29.844 31.7418 30.9141 30.3149 31.7077 28.6792L30.808 28.2427ZM27.8344 32.21C26.7459 33.1643 25.5354 33.8392 24.2001 34.2398L24.4874 35.1977C25.9646 34.7545 27.301 34.0075 28.4937 32.9619L27.8344 32.21ZM24.3438 34.2188C24.3896 34.2188 24.5158 34.2305 24.627 34.3418C24.7382 34.453 24.75 34.5792 24.75 34.625H23.75C23.75 34.7333 23.7774 34.9064 23.9199 35.0489C24.0623 35.1913 24.2354 35.2188 24.3438 35.2188V34.2188ZM24.75 34.625C24.75 34.6857 24.7369 34.7284 24.7317 34.7439C24.7257 34.7617 24.7209 34.7698 24.7228 34.7662C24.7271 34.7582 24.7423 34.733 24.7773 34.687C24.8463 34.596 24.9601 34.4654 25.1269 34.2909L24.4043 33.5997C24.2274 33.7846 24.0834 33.947 23.9806 34.0826C23.9296 34.1498 23.8803 34.2213 23.8416 34.2934C23.8113 34.3499 23.75 34.4728 23.75 34.625H24.75ZM25.102 34.3153C26.8552 32.7214 28.384 30.8895 29.6885 28.8214L28.8427 28.2879C27.5847 30.2823 26.1135 32.0442 24.4293 33.5753L25.102 34.3153ZM29.6956 28.81C29.9972 28.3019 30.2306 27.8675 30.3901 27.5107C30.5406 27.174 30.6562 26.8414 30.6562 26.5625H29.6562C29.6562 26.6118 29.6235 26.7752 29.4771 27.1026C29.3398 27.4099 29.1278 27.8074 28.8357 28.2994L29.6956 28.81ZM30.6562 26.5625C30.6562 26.3604 30.6054 26.117 30.4161 25.9277C30.2267 25.7384 29.9833 25.6875 29.7812 25.6875V26.6875C29.8292 26.6875 29.7733 26.6991 29.7089 26.6348C29.6446 26.5705 29.6562 26.5146 29.6562 26.5625H30.6562ZM29.7812 25.6875C29.3051 25.6875 28.3338 25.7865 26.9041 25.9729L27.0334 26.9646C28.4787 26.776 29.3824 26.6875 29.7812 26.6875V25.6875ZM26.9142 25.9717C25.6285 26.1129 24.654 26.2643 24.0086 26.4297L24.257 27.3984C24.8304 27.2514 25.7465 27.1059 27.0233 26.9658L26.9142 25.9717ZM24.0308 26.4246C23.8471 26.4628 23.701 26.4905 23.5903 26.5083C23.535 26.5173 23.4913 26.5233 23.458 26.527C23.4414 26.5288 23.4287 26.5299 23.4193 26.5306C23.4096 26.5312 23.4057 26.5312 23.4062 26.5312V27.5312C23.5776 27.5312 23.8742 27.4787 24.2348 27.4036L24.0308 26.4246ZM23.4062 26.5312C23.441 26.5312 23.4346 26.5418 23.3738 26.509C23.3162 26.478 23.2341 26.4213 23.1261 26.3268L22.4676 27.0794C22.6097 27.2037 22.7541 27.3111 22.8997 27.3895C23.0419 27.4661 23.2153 27.5312 23.4062 27.5312V26.5312ZM23.1402 26.3396C23.0124 26.2189 22.9343 26.1286 22.8916 26.067C22.8816 26.0525 22.8747 26.0413 22.8701 26.0332C22.8655 26.025 22.864 26.0212 22.8641 26.0216C22.8643 26.0219 22.8668 26.0281 22.8694 26.0397C22.872 26.0513 22.875 26.0697 22.875 26.0938H21.875C21.875 26.3173 21.9798 26.5068 22.0694 26.6362C22.1673 26.7776 22.3001 26.9217 22.4536 27.0666L23.1402 26.3396ZM22.875 26.0938C22.875 26.1069 22.8733 26.0863 22.8962 26.0175C22.9176 25.9533 22.9538 25.8666 23.0097 25.7549L22.1153 25.3076C21.9883 25.5616 21.875 25.8413 21.875 26.0938H22.875ZM23.0311 25.7056C23.2999 24.9833 23.5559 23.8155 23.8063 22.2345L22.8187 22.078C22.5691 23.6533 22.3251 24.7355 22.0939 25.3569L23.0311 25.7056ZM23.8081 22.2223L23.855 21.8708L22.8638 21.7386L22.8169 22.0902L23.8081 22.2223ZM23.2831 21.3105C21.1539 21.6393 19.5839 21.9894 18.6075 22.3701L18.9707 23.3018C19.8379 22.9637 21.3149 22.6263 23.4357 22.2988L23.2831 21.3105ZM18.5942 22.3755C18.3989 22.4581 18.2451 22.5159 18.1294 22.5523C18.0017 22.5924 17.9589 22.5938 17.9688 22.5938V23.5938C18.1192 23.5938 18.2834 23.5521 18.4292 23.5063C18.5869 23.4567 18.773 23.3857 18.9839 23.2964L18.5942 22.3755ZM17.9688 22.5938C18.0004 22.5938 17.9393 22.5972 17.7373 22.4738C17.5573 22.3638 17.3215 22.1886 17.0261 21.9386L16.3802 22.702C16.6941 22.9676 16.9739 23.1792 17.2158 23.327C17.4357 23.4614 17.7027 23.5938 17.9688 23.5938V22.5938ZM17.0484 21.9586C16.8822 21.8 16.7706 21.6819 16.704 21.6002C16.6881 21.5806 16.6762 21.565 16.6678 21.553C16.6636 21.5471 16.6605 21.5426 16.6584 21.5392C16.6573 21.5376 16.6565 21.5363 16.656 21.5354C16.6555 21.5346 16.6552 21.5341 16.6552 21.5341C16.6552 21.5341 16.6555 21.5347 16.6561 21.5357C16.6566 21.5367 16.6574 21.5384 16.6585 21.5406C16.6605 21.5449 16.6639 21.5526 16.6676 21.5633C16.6741 21.5818 16.6875 21.6259 16.6875 21.6875H15.6875C15.6875 21.8433 15.7513 21.967 15.7842 22.0254C15.8251 22.0979 15.8766 22.1678 15.9288 22.2319C16.0341 22.3611 16.1803 22.5125 16.3579 22.682L17.0484 21.9586ZM16.6875 21.6875C16.6875 21.6473 16.6975 21.7075 16.6387 21.7882C16.6055 21.834 16.5583 21.8742 16.5013 21.9003C16.447 21.9252 16.4007 21.9297 16.375 21.9297V20.9297C16.1846 20.9297 15.9728 21.0038 15.83 21.2001C15.7088 21.3667 15.6875 21.5558 15.6875 21.6875H16.6875ZM16.375 21.9297C17.0465 21.9297 17.8092 21.8977 18.6619 21.8346L18.5881 20.8373C17.7533 20.8991 17.016 20.9297 16.375 20.9297V21.9297ZM18.7363 21.8234C20.1547 21.4996 21.7712 21.2209 23.587 20.9881L23.4599 19.9962C21.6195 20.2322 19.9703 20.516 18.5137 20.8485L18.7363 21.8234ZM24.0213 20.538C24.1322 19.3344 24.1875 18.0925 24.1875 16.8125H23.1875C23.1875 18.0637 23.1334 19.275 23.0255 20.4463L24.0213 20.538ZM24.1875 16.8125V15.3359H23.1875V16.8125H24.1875ZM24.1875 15.3359C24.1875 15.2442 24.1939 15.1766 24.2027 15.129C24.2116 15.0804 24.2209 15.0644 24.219 15.0677C24.2156 15.0739 24.1978 15.1021 24.157 15.1267C24.1153 15.1519 24.078 15.1562 24.0625 15.1562V14.1562C23.922 14.1562 23.7753 14.189 23.6399 14.2708C23.5054 14.352 23.4094 14.4652 23.3435 14.5846C23.22 14.8084 23.1875 15.0798 23.1875 15.3359H24.1875Z" fill="#333333"/>
</svg>

<svg xmlns="http://www.w3.org/2000/svg" width="50" height="50" fill="none"><path fill="#333" d="M24.063 14.656c.343 0 .734.133 1.171.399.47.297.703.57.703.82 0 .094-.07.25-.21.469-.141.203-.25.633-.329 1.289L25 20.258c1.063-.125 2.188-.242 3.375-.352 1.438-.187 2.313-.367 2.625-.539.25-.14.438-.21.563-.21.28 0 .742.218 1.382.655.578.438.867.75.867.938a.651.651 0 0 1-.046.281.318.318 0 0 1-.235.094l-.586-.023a16.875 16.875 0 0 0-1.758-.07c-1.75 0-3.882.187-6.398.562l-.422 2.883-.023.398c0 .39.156.586.468.586.157 0 .352-.023.586-.07 1.25-.125 2.415-.25 3.493-.375.25-.032.578-.047.984-.047.484 0 .977.148 1.477.445.515.344.773.64.773.89 0 .235-.29.954-.867 2.157a13.376 13.376 0 0 1-3.094 4.125 10.18 10.18 0 0 1-3.82 2.133c-.063 0-.094-.032-.094-.094 0-.094.172-.32.516-.68a25.948 25.948 0 0 0 4.5-5.39c.593-1 .89-1.664.89-1.992 0-.25-.125-.375-.375-.375-.437 0-1.375.093-2.812.28-1.282.141-2.227.29-2.836.446-.375.078-.617.117-.727.117-.156 0-.36-.11-.61-.328-.28-.265-.421-.469-.421-.61 0-.124.063-.312.188-.562.25-.672.5-1.797.75-3.375l.046-.351c-2.125.328-3.648.672-4.57 1.03-.406.173-.68.259-.82.259-.235 0-.657-.258-1.266-.774-.344-.328-.515-.539-.515-.633 0-.171.062-.257.187-.257.656 0 1.406-.032 2.25-.094 1.438-.328 3.07-.61 4.898-.844.11-1.187.165-2.414.165-3.68v-1.476c0-.453.125-.68.375-.68Z"/><path fill="#333" d="m25.234 15.055.268-.423-.008-.005-.26.428Zm.493 1.289.41.284.005-.007.005-.007-.42-.27Zm-.329 1.289.495.075.001-.008v-.008l-.496-.06ZM25 20.258l-.494-.075-.099.648.651-.077-.058-.496Zm3.375-.352.046.498h.01l.009-.002-.065-.496ZM31 19.367l.241.438.004-.002-.245-.436Zm1.945.445.302-.398-.01-.008-.01-.006-.282.413Zm.82 1.22.354.353.058-.058.036-.072-.447-.224Zm-.234.093-.02.5h.02v-.5Zm-.586-.023-.055.497.018.002h.017l.02-.5Zm-8.156.492-.074-.495-.367.055-.054.367.495.073Zm-.422 2.883-.495-.073-.003.022v.021l.498.03Zm-.023.398-.5-.03v.03h.5Zm1.054.516-.05-.498-.024.002-.024.005.098.49Zm3.493-.375.057.496h.005l-.062-.496Zm2.46.398.278-.416-.01-.007-.012-.007-.255.43Zm-.093 3.047.45.218v-.002l-.45-.216Zm-3.094 4.125.33.376.005-.005-.335-.371Zm-3.82 2.133v.5h.073l.07-.021-.143-.48Zm.422-.774-.337-.37-.013.012-.012.013.362.345Zm4.5-5.39.423.267.007-.012-.43-.255Zm-2.297-2.086.054.497.01-.001-.064-.496Zm-2.836.445.102.49.011-.003.011-.003-.124-.484Zm-1.336-.21-.343.363.006.006.008.006.329-.376Zm-.235-1.173.448.224.012-.024.01-.025-.47-.175Zm.75-3.375.494.079.002-.013-.495-.066Zm.047-.351.496.066.088-.662-.66.102.076.494Zm-4.57 1.03-.181-.465-.007.003-.007.002.195.46Zm-2.086-.515-.345.362.01.01.012.01.323-.382Zm1.922-.984.037.499.038-.003.036-.009-.111-.487Zm4.898-.844.064.496.398-.05.036-.4-.498-.046Zm.54-5.336c.218 0 .517.086.912.326l.519-.855c-.48-.291-.962-.47-1.431-.47v1Zm.904.321c.212.135.343.246.415.33.073.086.055.105.055.068h1c0-.287-.134-.53-.296-.718a2.842 2.842 0 0 0-.64-.525l-.534.845Zm.47.398a.275.275 0 0 1 .005-.05v-.003h.001v.002l-.003.007a1.771 1.771 0 0 1-.134.242l.841.541c.078-.12.145-.237.194-.346a.974.974 0 0 0 .096-.393h-1Zm-.122.184c-.12.175-.2.402-.26.636a7.005 7.005 0 0 0-.153.879l.993.118c.038-.316.081-.564.129-.75a1.11 1.11 0 0 1 .114-.314l-.823-.569Zm-.41 1.499-.4 2.625.99.15.398-2.625-.989-.15Zm.153 3.196c1.058-.124 2.18-.24 3.363-.35l-.092-.996c-1.191.11-2.32.228-3.387.353l.116.993Zm3.382-.352a25.671 25.671 0 0 0 1.77-.281c.435-.09.8-.19 1.031-.316l-.482-.876c-.082.045-.31.122-.75.212a24.7 24.7 0 0 1-1.699.27l.13.991Zm2.805-.599a1.95 1.95 0 0 1 .259-.126c.067-.025.081-.02.058-.02v-1c-.267 0-.556.133-.807.274l.49.872Zm.317-.147c.029 0 .133.017.343.116.198.094.45.243.758.453l.564-.825a6.854 6.854 0 0 0-.893-.531c-.252-.12-.519-.213-.772-.213v1Zm1.082.555c.28.212.47.379.585.504a.762.762 0 0 1 .096.121c.014.024-.013-.01-.013-.086h1a.833.833 0 0 0-.12-.414 1.726 1.726 0 0 0-.23-.3 5.608 5.608 0 0 0-.715-.622l-.603.797Zm.669.539c0 .043-.003.07-.005.082-.001.006-.002.006 0 .003a.187.187 0 0 1 .01-.027l.895.447c.083-.167.1-.354.1-.505h-1Zm.1-.072a.187.187 0 0 1 .118-.053v1a.818.818 0 0 0 .588-.24l-.707-.707Zm.138-.053-.586-.023-.04 1 .586.023.04-1Zm-.55-.02a17.344 17.344 0 0 0-1.813-.074v1c.743 0 1.307.024 1.702.068l.11-.994Zm-1.813-.074c-1.784 0-3.942.191-6.473.568l.148.99c2.5-.374 4.608-.558 6.325-.558v-1Zm-6.894.99-.422 2.883.99.145.422-2.883-.99-.145Zm-.426 2.926-.023.399.998.058.023-.398-.998-.059Zm-.024.428c0 .249.047.528.226.752.197.245.476.334.742.334v-1c-.026 0-.027-.004-.012.002a.13.13 0 0 1 .051.04c.013.015.01.02.005 0a.512.512 0 0 1-.012-.128h-1Zm.968 1.086c.202 0 .433-.03.684-.08l-.196-.98a2.61 2.61 0 0 1-.488.06v1Zm.636-.073c1.252-.125 2.42-.25 3.5-.376l-.115-.993c-1.075.125-2.236.25-3.484.374l.1.995Zm3.505-.376a7.8 7.8 0 0 1 .922-.043v-1c-.416 0-.767.016-1.046.05l.124.993Zm.922-.043c.378 0 .783.115 1.221.375l.51-.86c-.56-.333-1.14-.515-1.731-.515v1Zm1.2.361c.239.16.391.291.48.392.092.107.07.13.07.083h1c0-.298-.15-.548-.316-.738a3.401 3.401 0 0 0-.68-.569l-.555.832Zm.55.475c0-.02.002.009-.033.121-.03.1-.078.234-.148.407-.138.345-.35.814-.637 1.411l.902.433c.29-.605.513-1.097.663-1.47.075-.188.135-.352.177-.49.038-.126.076-.275.076-.412h-1Zm-.817 1.938a12.878 12.878 0 0 1-2.98 3.972l.671.742a13.878 13.878 0 0 0 3.209-4.278l-.9-.436Zm-2.974 3.967a9.68 9.68 0 0 1-3.634 2.03l.287.958a10.68 10.68 0 0 0 4.007-2.236l-.66-.752Zm-3.49 2.009c.046 0 .172.011.283.123a.408.408 0 0 1 .123.283h-1c0 .108.027.281.17.424.142.142.315.17.424.17v-1Zm.406.406c0 .06-.013.103-.018.119-.006.018-.011.026-.01.022a.704.704 0 0 1 .055-.079c.07-.091.183-.222.35-.396l-.723-.691c-.177.185-.32.347-.423.483-.051.067-.1.138-.14.21a.708.708 0 0 0-.091.332h1Zm.352-.31a26.453 26.453 0 0 0 4.587-5.494l-.846-.533a25.45 25.45 0 0 1-4.414 5.287l.673.74Zm4.594-5.505c.301-.508.535-.942.694-1.3.15-.336.266-.669.266-.948h-1c0 .05-.032.213-.179.54-.137.308-.35.705-.641 1.197l.86.511Zm.96-2.247a.877.877 0 0 0-.24-.635.877.877 0 0 0-.635-.24v1c.048 0-.008.011-.072-.053-.064-.065-.053-.12-.053-.073h1Zm-.875-.875c-.476 0-1.447.099-2.877.285l.13.992c1.445-.189 2.348-.277 2.747-.277v-1Zm-2.867.284c-1.286.14-2.26.292-2.905.458l.248.968c.573-.147 1.49-.292 2.766-.432l-.109-.994Zm-2.883.453c-.184.038-.33.066-.44.083a2.7 2.7 0 0 1-.172.023h-.013v1c.172 0 .468-.052.829-.127l-.204-.98Zm-.625.106c.035 0 .029.01-.032-.022a1.43 1.43 0 0 1-.248-.182l-.658.752c.142.125.286.232.432.31.142.077.315.142.506.142v-1Zm-.266-.191a1.89 1.89 0 0 1-.248-.273.466.466 0 0 1-.022-.034l-.006-.011s.003.006.005.018c.003.011.006.03.006.054h-1c0 .223.105.413.194.542.098.142.231.286.385.43l.686-.726Zm-.265-.246c0 .013-.002-.008.021-.077.022-.064.058-.15.114-.262l-.895-.447c-.127.254-.24.533-.24.786h1Zm.156-.388c.269-.723.525-1.89.775-3.471l-.987-.157c-.25 1.575-.494 2.657-.725 3.279l.937.349Zm.777-3.484.047-.351-.991-.132-.047.351.991.132Zm-.525-.912c-2.13.33-3.7.68-4.675 1.06l.363.932c.867-.338 2.344-.676 4.465-1.003l-.153-.988Zm-4.689 1.066c-.195.082-.349.14-.465.176-.127.04-.17.042-.16.042v1c.15 0 .314-.042.46-.088.158-.05.344-.12.555-.21l-.39-.92Zm-.625.218c.031 0-.03.003-.232-.12a6.088 6.088 0 0 1-.71-.535l-.647.763c.314.266.594.477.836.625.22.134.487.267.753.267v-1Zm-.92-.635a4.29 4.29 0 0 1-.345-.359.874.874 0 0 1-.048-.065l.003.006a.377.377 0 0 1 .029.147h-1c0 .155.063.279.096.337.041.073.093.143.145.207.105.13.251.28.429.45l.69-.723Zm-.361-.271c0-.04.01.02-.05.1a.351.351 0 0 1-.137.112.307.307 0 0 1-.126.03v-1a.662.662 0 0 0-.545.27.82.82 0 0 0-.143.488h1Zm-.313.242c.672 0 1.434-.032 2.287-.095l-.074-.998c-.835.062-1.572.093-2.213.093v1Zm2.361-.107c1.419-.323 3.035-.602 4.851-.835l-.127-.992c-1.84.236-3.49.52-4.946.853l.222.974Zm5.285-1.285c.111-1.204.166-2.445.166-3.726h-1c0 1.252-.054 2.463-.162 3.634l.996.092Zm.166-3.726v-1.476h-1v1.476h1Zm0-1.476c0-.092.007-.16.016-.207.009-.049.018-.065.016-.061a.175.175 0 0 1-.062.059.192.192 0 0 1-.095.03v-1a.81.81 0 0 0-.422.114.83.83 0 0 0-.297.314c-.123.223-.155.495-.155.75h1Z"/></svg>
